src/images/facebook.svg

<svg id="Capa_1" enable-background="new 0 0 512 512" height="512" viewBox="0 0 512 512" width="512" xmlns="http://www.w3.org/2000/svg"><path d="m512 256c0-141.4-114.6-256-256-256s-256 114.6-256 256 114.6 256 256 256c1.5 0 3 0 4.5-.1v-199.2h-55v-64.1h55v-47.2c0-54.7 33.4-84.5 82.2-84.5 23.4 0 43.5 1.7 49.3 2.5v57.2h-33.6c-26.5 0-31.7 12.6-31.7 31.1v40.8h63.5l-8.3 64.1h-55.2v189.5c107-30.7 185.3-129.2 185.3-246.1z"/></svg>

<svg width="512" height="512" viewBox="0 0 512 512" fill="none" xmlns="http://www.w3.org/2000/svg">
<path d="M512 256C512 114.6 397.4 0 256 0C114.6 0 0 114.6 0 256C0 397.4 114.6 512 256 512C257.5 512 259 512 260.5 511.9V312.7H205.5V248.6H260.5V201.4C260.5 146.7 293.9 116.9 342.7 116.9C366.1 116.9 386.2 118.6 392 119.4V176.6H358.4C331.9 176.6 326.7 189.2 326.7 207.7V248.5H390.2L381.9 312.6H326.7V502.1C433.7 471.4 512 372.9 512 256V256Z" fill="#100F0F" fill-opacity="0.81"/>
</svg>
